!!!COM: Music21
!!!OTL: Pasodoble
!!!OMV: pezas_pasodobles_pasodoble-5_pasodoble-partitura.musicxml
**kern
*part1
*staff1
*I"Bagpipes
*I'Bag
*clefG^2
*k[]
*M2/4
=1
!LO:TX:a:t=Allegro
*MM132
!LO:TX:a:t=[quarter]=132
4r
4gg
=||
4bb
4gg
=
8ffML
[8eeJ
4ee_
=
4ee]
4gg
=
4aa
4bb
=
8ggML
[8ffJ
4ff_
=
4ff]
4bb
=
4bb
4aa
=
8cccL
[8bbJ
4bb_
=
8bbL]
8aaJ
8aaL
8ggJ
=
8bbL
[8aaJ
4aa_
!!linebreak:original
=
8aaL]
8ggJ
8ggL
8ggJ
=
8ff
[4.ee
!!linebreak:original
=
4ee]
4gg
=||
4bb
4gg
=
8ffML
[8eeJ
4ee_
=
4ee]
4gg
=
4aa
4bb
=
8ggML
[8ffJ
4ff_
=
4ff]
4bb
=
4bb
4aa
=
8cccL
[8bbJ
4bb_
=
8bbL]
8aaJ
8aaL
8ggJ
=
8bbL
[8aaJ
4aa_
=
8aaL]
8ggJ
8ggL
8ggJ
!!linebreak:original
=
8ffL
[8eeJ
4ee_
=
16ee]
16r
8gg
8aaL
8bbJ
=||
[4ccc
8cccL]
8aaJ
=
[4bb
8bbL]
8ggJ
=
4aa
[4ff
=
8ffL]
8ffJ
8ggL
8aaJ
=
[4bb
8bbL]
8ggJ
=
[4aa
8aaL]
8ffJ
=
4gg
[4ee
=
8eeL]
8ggJ
8aaL
8bbJ
=
[4ccc
8cccL]
8aaJ
!!linebreak:original
=
[4bb
8bbL]
8ggJ
=
4aa
[4ff
=
8ffL]
8ffJ
8ggL
8aaJ
=
[4bb
8bbL]
8aaJ
=
8ggL
8aaJ
8ggL
8ffJ
=
[2ee
=
16ee]
16r
8gg
8aaL
8bbJ
=||
[4ccc
8cccL]
8aaJ
=
[4bb
8bbL]
8ggJ
=
4aa
[4ff
=
8ffL]
8ffJ
8ggL
8aaJ
!!linebreak:original
=
[4bb
8bbL]
8ggJ
=
[4aa
8aaL]
8ffJ
=
4gg
[4ee
=
8eeL]
8ggJ
8aaL
8bbJ
=
[4ccc
8cccL]
8aaJ
!!pagebreak:original
=
[4bb
8bbL]
8ggJ
=
4aa
[4ff
=
8ffL]
8ffJ
8ggL
8aaJ
=
[4bb
8bbL]
8aaJ
=
8ggL
8aaJ
8ggL
8ffJ
=
[2ee
=
8ee]
8r
4gg
=||
8ee
8r
8ggL
16aaL
16bbJJ
=
8ccc
8r
4r
==
*-
!!!system-decoration: s1,s2
